X: 26116
T: McGoldrick's
R: jig
M: 6/8
K: Dmajor
|:f3 efg|fdA G3|FAd GBe|AB/c/d efg|
f3 efg|fdA G3|FAd GBe|Adc d2e:|
|:B3 BAB|f2a fec|e3 fec|Ace fec|
B3 BAB|f2a fec|e3 fec|BcA B3:|

